!!!COM: Mendelssohn, Felix
!!!CDT: 1809/02/03-1847/11/04
!!!OPR: Sechs vierstimmige Lieder
!!!OTL: Die Nachtigall
!!!OPS: Op. 59
!!!ONM: Nr. 4
!!!OMD: Andante
**kern	**text	**dynam	**kern	**text	**dynam	**kern	**text	**dynam	**kern	**text	**dynam
*part4	*part4	*part4	*part3	*part3	*part3	*part2	*part2	*part2	*part1	*part1	*part1
*staff4	*staff4	*	*staff3	*staff3	*	*staff2	*staff2	*	*staff1	*staff1	*
*I"Bass	*	*	*I"Tenor	*	*	*I"Alt	*	*	*I"Sopran	*	*
*clefF4	*	*	*clefGv2	*	*	*clefG2	*	*	*clefG2	*	*
*k[b-e-a-d-]	*	*	*k[b-e-a-d-]	*	*	*k[b-e-a-d-]	*	*	*k[b-e-a-d-]	*	*
*A-:	*	*	*A-:	*	*	*A-:	*	*	*A-:	*	*
*M3/8	*	*	*M3/8	*	*	*M3/8	*	*	*M3/8	*	*
*MM52	*	*	*MM52	*	*	*MM52	*	*	*MM52	*	*
=	=	=	=	=	=	=	=	=	=	=	=
8r	.	.	8r	.	.	8e-	Die	p	8e-	Die	p
=1	=1	=1	=1	=1	=1	=1	=1	=1	=1	=1	=1
4.r	.	.	4.r	.	.	4a-	Nach-	.	4cc	Nach-	.
.	.	.	.	.	.	8e-	-ti-	.	8b-	-ti-	.
=2	=2	=2	=2	=2	=2	=2	=2	=2	=2	=2	=2
4.r	.	.	4.r	.	.	8.c	-gall,	.	8.a-	-gall,	.
.	.	.	.	.	.	16e-	sie	<	16b-	sie	<
.	.	.	.	.	.	16a-	war	(	16cc	war	(
.	.	.	.	.	.	16b-	ent-	[[	16dd-	ent-	[[
=3	=3	=3	=3	=3	=3	=3	=3	=3	=3	=3	=3
4.r	.	.	4.r	.	.	4cc	-fernt,	.	4ee-	-fernt,	.
.	.	.	.	.	.	8dd-	der	.	8ff	der	.
=4	=4	=4	=4	=4	=4	=4	=4	=4	=4	=4	=4
4.r	.	.	4.r	.	.	8dd-	Früh-	.	8ff	Früh-	.
.	.	.	.	.	.	8cc	-ling	.	8ee-	-ling	.
.	.	.	.	.	.	16a-	lockt	.	16cc	lockt	.
.	.	.	.	.	.	16a-	sie	.	16a-	sie	.
=5	=5	=5	=5	=5	=5	=5	=5	=5	=5	=5	=5
4.r	.	.	4.r	.	.	8a-	wie-	p	8cc	wie-	p
.	.	.	.	.	.	4g	-der;	.	4b-	-der;	.
=6	=6	=6	=6	=6	=6	=6	=6	=6	=6	=6	=6
4.r	.	.	4.r	.	.	8g	was	.	8b-	was	.
.	.	.	.	.	.	8.b-	neu-	<	8.dd-	neu-	<
.	.	.	.	.	.	16a-	-es	.	16cc	-es	.
=7	=7	=7	=7	=7	=7	=7	=7	=7	=7	=7	=7
4.r	.	.	4.r	.	.	16g	hat	.	16b-	hat	.
.	.	.	.	.	.	16b-	sie	.	16dd-	sie	.
.	.	.	.	.	.	8.dd-	nicht	.	8.ff	nicht	.
.	.	.	.	.	.	16cc	ge-	.	16ee-	ge-	.
=8	=8	=8	=8	=8	=8	=8	=8	=8	=8	=8	=8
4.r	.	.	4.r	.	.	4b-	-lernt,	.	4dd-	-lernt,	.
.	.	.	.	.	.	8dd-	singt	f	8ee-	singt	f
=9	=9	=9	=9	=9	=9	=9	=9	=9	=9	=9	=9
4.r	.	.	4.r	.	.	8.cc	al-	.	8.aa-	al-	.
.	.	.	.	.	.	16cc	-te	.	16ee-	-te	.
.	.	.	.	.	.	16b-	lie-	.	16dd-	lie-	.
.	.	.	.	.	.	16a-	-be	.	16cc	-be	.
=10	=10	=10	=10	=10	=10	=10	=10	=10	=10	=10	=10
4.r	.	.	4.r	.	.	8g	Lie-	.	8b-	Lie-	.
.	.	.	.	.	.	8a-	-der,	.	8cc	-der,	.
.	.	.	.	.	.	8e-	singt	p	8r	.	.
=11	=11	=11	=11	=11	=11	=11	=11	=11	=11	=11	=11
4.r	.	.	4.r	.	.	8.a-	al-	.	8r	.	.
.	.	.	.	.	.	.	.	.	(8cc	lie-	p
.	.	.	.	.	.	16e-	-te	.	.	.	.
.	.	.	.	.	.	16d-	lie-	.	16b-)	.	.
.	.	.	.	.	.	16c	-be	.	16a-	-be	.
=12	=12	=12	=12	=12	=12	=12	=12	=12	=12	=12	=12
8r	.	.	8r	.	.	8B-	Lie-	.	8g	Lie-	.
8r	.	.	8r	.	.	8c	-der.	.	8a-	-der.	.
8E-	Die	p	8E-	Die	p	8r	.	.	8r	.	.
=13	=13	=13	=13	=13	=13	=13	=13	=13	=13	=13	=13
4A-	Nach-	.	4c	Nach-	.	8r	.	.	8r	.	.
.	.	.	.	.	.	8r	.	.	8r	.	.
8E-	-ti-	.	8B-	-ti-	.	8e-	Die	.	8e-	Die	.
=14	=14	=14	=14	=14	=14	=14	=14	=14	=14	=14	=14
8.C	-gall,	.	8.A-	-gall,	.	8.e-	Nach-	.	8.ee-	Nach-	.
16E-	sie	<	16B-	sie	<	16g	-ti-	.	16dd-	-ti-	.
16A-	war	(	16c	war	(	16a-	-gall,	.	16cc	-gall,	.
16B-	ent-	(	16d-	ent-	[[	16a-	sie	.	16b-	sie	.
=15	=15	=15	=15	=15	=15	=15	=15	=15	=15	=15	=15
4c	-fernt,	[	4e-	-fernt,	.	(8a-L	war	.	4a-	war	.
.	.	.	.	.	.	8gJ)	.	.	.	.	.
8d-	der	.	8f	der	.	(16fLL	ent-	.	8a-	ent-	.
.	.	.	.	.	.	16gJJ)	.	.	.	.	.
=16	=16	=16	=16	=16	=16	=16	=16	=16	=16	=16	=16
8d-	Früh-	.	8f	Früh-	.	4.a-	-fernt,	.	4.a-	-fernt,	.
8c	-ling	.	8e-	-ling	.	.	.	.	.	.	.
.	.	.	.	.	.	.	.	.	.	.	.
16A-	lockt	.	16c	lockt	.	.	.	.	.	.	.
16A-	sie	.	16A-	sie	.	.	.	.	.	.	.
=17	=17	=17	=17	=17	=17	=17	=17	=17	=17	=17	=17
8A-	wie-	p	8c	wie-	p	4.r	.	.	16r	.	.
.	.	.	.	.	.	.	.	.	16e-	was	.
4G	-der;	.	4B-	-der;	.	.	.	.	16e-L	neu-	.
.	.	.	.	.	.	.	.	.	16fJ	.	.
.	.	.	.	.	.	.	.	.	16gL	-es	.
.	.	.	.	.	.	.	.	.	16a-J	.	.
=18	=18	=18	=18	=18	=18	=18	=18	=18	=18	=18	=18
8G	was	.	8B-	was	.	16r	.	.	16b-	hat	.
.	.	.	.	.	.	16e-	was	.	16g	sie	.
8.B-	neu-	.	8.d-	neu-	.	16e-L	neu-	.	16gL	nicht	.
.	.	.	.	.	.	16fJ	.	.	16a-J	.	.
.	.	<	.	.	<	16gL	-es	<	16b-L	ge-	<
16A-	-es	.	16c	-es	.	16a-J	.	.	16ccJ	.	.
=19	=19	=19	=19	=19	=19	=19	=19	=19	=19	=19	=19
16G	hat	.	16B-	hat	.	16b-	hat	.	16dd-L	-lernt,	.
16B-	sie	.	16d-	sie	.	16g	sie	.	16b-J	.	.
8.d-	nicht	.	8.f	nicht	.	16gL	nicht	.	16b-L	nicht	.
.	.	.	.	.	.	16a-J	.	.	16ccJ	.	.
.	.	.	.	.	.	16b-L	ge-	.	16dd-L	ge-	.
16c	ge-	.	16e-	ge-	.	16ccJ	.	.	16ee-J	.	.
=20	=20	=20	=20	=20	=20	=20	=20	=20	=20	=20	=20
4B-	-lernt,	.	4d-	-lernt,	.	8dd-L	-lernt,	f	8ffL	-lernt,	f
.	.	.	.	.	.	16cc	.	.	16ee-	.	.
.	.	.	.	.	.	16b-J	.	.	16dd-J	.	.
8d-	singt	f	8e-	singt	f	16a-L	singt	.	16ccL	singt	.
.	.	.	.	.	.	16gJ	.	.	16b-J	.	.
=21	=21	=21	=21	=21	=21	=21	=21	=21	=21	=21	=21
8.c	al-	.	8.a-	al-	.	8.a-	al-	.	16a-	al-	.
.	.	.	.	.	.	.	.	.	16cc	-te	.
.	.	.	.	.	.	.	.	.	8.ee-	lie-	.
16c	-te	.	16e-	-te	.	16a-	-te	.	.	.	.
16B-	lie-	.	16d-	lie-	.	16g	lie-	.	.	.	.
16A-	-be	.	16c	-be	.	16a-	-be	.	16a-	-be	.
=22	=22	=22	=22	=22	=22	=22	=22	=22	=22	=22	=22
8G	Lie-	.	8B-	Lie-	.	8e-	Lie-	.	8dd-	Lie-	.
8A-	-der,	.	8c	-der,	.	4e-	-der,	.	4cc	-der.	.
8E-	singt	p	8r	.	.	.	.	.	.	.	.
=23	=23	=23	=23	=23	=23	=23	=23	=23	=23	=23	=23
8.A-	al-	.	8r	.	.	16r	.	.	4.r	.	.
.	.	.	.	.	.	16c	singt	p	.	.	.
.	.	.	(8c	lie-	p	8e-	lie-	.	.	.	.
16E-	-te	.	.	.	.	.	.	.	.	.	.
16D-	lie-	.	16B-)	.	.	8e-	-be	.	.	.	.
16C	-be	.	16A-	-be	.	.	.	.	.	.	.
=24	=24	=24	=24	=24	=24	=24	=24	=24	=24	=24	=24
8BB-	Lie-	.	8G	Lie-	p	8e-	Lie-	.	8r	.	.
8C	-der.	.	8A-	-der.	.	8e-	-der.	.	8r	.	.
8r	.	.	8r	.	.	8r	.	.	8e-	Die	pp
=25	=25	=25	=25	=25	=25	=25	=25	=25	=25	=25	=25
8E-	Die	pp	8E-	Die	pp	8e-	Die	pp	4cc	Nach-	.
8E-	Nach-	.	8e-	Nach-	.	8a-	Nach-	.	.	.	.
8E-	-ti-	.	8d-	-ti-	.	8g	-ti-	.	8b-	-ti-	.
=26	=26	=26	=26	=26	=26	=26	=26	=26	=26	=26	=26
8.AA-	-gall,	.	8.c	-gall,	.	8.e-	-gall,	.	8.a-	-gall,	.
16A-	sie	<	16d-	sie	<	16a-	sie	<	16b-	sie	<
16A-	war	(	16e-	war	(	16a-	war	(	16cc	war	(
16A-	ent-	[[	16f	ent-	[[	16a-	ent-	[[	16dd-	ent-	[[
=27	=27	=27	=27	=27	=27	=27	=27	=27	=27	=27	=27
4A-	-fernt,	.	4c	-fernt,	.	4g-X	-fernt,	.	4ee-	-fernt,	.
8A-	der	.	8d-	der	.	8f	der	.	8ff	der	.
=28	=28	=28	=28	=28	=28	=28	=28	=28	=28	=28	=28
8A-	Früh-	.	8d-	Früh-	.	8gn	Früh-	.	8ff	Früh-	.
8A-	-ling	.	8c	-ling	.	8a-	-ling	.	8ee-	-ling	.
16A-	lockt	.	16e-	lockt	.	16a-	lockt	.	16cc	lockt	.
16F	sie	.	16dn	sie	.	16a-	sie	.	16a-	sie	.
=29	=29	=29	=29	=29	=29	=29	=29	=29	=29	=29	=29
8E-	wie-	.	8dn	wie-	.	8a-	wie-	.	8cc	wie-	.
4E-	-der;	.	4e-	-der;	.	4g	-der;	.	4b-	-der;	.
=30	=30	=30	=30	=30	=30	=30	=30	=30	=30	=30	=30
*b-:	*	*	*b-:	*	*	*b-:	*	*	*b-:	*	*
8E-	was	.	8B-	was	.	8g-X	was	.	8b-	was	.
8F	neu-	<	8B-	neu-	<	8f	neu-	<	8.dd-	neu-	<
8E-	-es	.	8An	-es	.	8f	-es	.	.	.	.
.	.	.	.	.	.	.	.	.	16cc	-es	.
=31	=31	=31	=31	=31	=31	=31	=31	=31	=31	=31	=31
16D-	hat	.	16B-	hat	.	16f	hat	.	16b-	hat	.
16BB-	sie	.	16B-	sie	.	16f	sie	.	16dd-	sie	.
8F	nicht	.	8d-X	nicht	.	8b-	nicht	.	8.ff	nicht	.
8F	ge-	.	8c	ge-	.	8an	ge-	.	.	.	.
.	.	.	.	.	.	.	.	.	16ee-	ge-	.
=32	=32	=32	=32	=32	=32	=32	=32	=32	=32	=32	=32
4B-	-lernt,	.	4d-	-lernt,	.	4b-	-lernt,	.	4dd-	-lernt,	.
*f:	*	*	*f:	*	*	*f:	*	*	*f:	*	*
8BB-	singt	p	8B-	singt	p	8f	singt	p	8dd-	singt	p
=33	=33	=33	=33	=33	=33	=33	=33	=33	=33	=33	=33
8.C	al-	.	8.A-	al-	.	8.f	al-	.	8.cc	al-	.
16C	-te	.	16d-	-te	.	16f	-te	.	16b-	-te	.
16C	lie-	.	16c	lie-	.	16f	lie-	.	16a-	lie-	.
16C	-be	.	16B-	-be	.	16en	-be	.	16g	-be	.
=34	=34	=34	=34	=34	=34	=34	=34	=34	=34	=34	=34
8C	Lie-	.	8B-	Lie-	.	8en	Lie-	.	8g	Lie-	.
8D-	-der,	.	8A-	-der,	.	8f	-der,	.	8f	-der,	.
8D-	singt	.	8A-	singt	.	8f	singt	.	8f	singt	.
=35	=35	=35	=35	=35	=35	=35	=35	=35	=35	=35	=35
*A-:	*	*	*A-:	*	*	*A-:	*	*	*A-:	*	*
8.D-	al-	<	8.d-	al-	<	8.f	al-	<	8.ff	al-	<
16E-	-te	.	16c	-te	.	16a-	-te	.	16ee-	-te	.
16F	lie-	.	16d-	lie-	.	16a-	lie-	.	16dd-	lie-	.
16E-	-be	.	16e-	-be	.	16a-	-be	.	16cc	-be	.
=36	=36	=36	=36	=36	=36	=36	=36	=36	=36	=36	=36
(4Dn	Lie-	<	(4f	Lie-	<	4a-	Lie-	.	8cc	Lie-	.
.	.	[[	.	.	[[	.	.	.	8b-	-der,	.
8D-X)	.	f	8e-)	.	f	8g	-der,	f	8ee-	singt	f
=37	=37	=37	=37	=37	=37	=37	=37	=37	=37	=37	=37
4C	-der,	.	4e-	-der,	.	8.a-	al-	.	8.aa-	al-	.
.	.	.	.	.	.	16a-	-te	.	16ee-	-te	.
16D-	lie-	.	8f	singt	.	16b-	lie-	.	16dd-	lie-	.
16D-	-be	.	.	.	.	16a-	-be	.	16cc	-be	.
=38	=38	=38	=38	=38	=38	=38	=38	=38	=38	=38	=38
8E-	Lie-	.	8d-	lie-	.	8g	Lie-	.	8b-	Lie-	.
8A-	-der,	.	8c	-be,	.	8a-	-der,	.	8cc	-der,	.
8r	.	.	8e-	singt	p	8r	.	.	8r	.	.
=39	=39	=39	=39	=39	=39	=39	=39	=39	=39	=39	=39
8r	.	.	8.a-	al-	.	8r	.	.	8r	.	.
8C	lie-	p	.	.	.	8e-	lie-	p	(8cc	lie-	p
.	.	.	16e-	-te	.	.	.	.	.	.	.
8D-	-be	.	16d-	lie-	.	8f	-be	.	16b-)	.	.
.	.	.	16c	-be	.	.	.	.	16a-	-be	.
=40	=40	=40	=40	=40	=40	=40	=40	=40	=40	=40	=40
8E-	Lie-	.	8B-	Lie-	.	8d-	Lie-	.	8g	Lie-	.
8AA-	-der.	.	8A-	-der,	.	8c	-der,	.	[4a-	-der.	.
8r	.	.	16r	.	.	16r	.	.	.	.	.
.	.	.	16f	singt	pp	16a-	singt	pp	.	.	.
=41	=41	=41	=41	=41	=41	=41	=41	=41	=41	=41	=41
4.r	.	.	8f'	al-	.	8a-'	al-	.	4.a-_	.	.
.	.	.	8e-'	-te	.	8g'	-te	.	.	.	.
.	.	.	8r	.	.	8r	.	.	.	.	.
=42	=42	=42	=42	=42	=42	=42	=42	=42	=42	=42	=42
4.r	.	.	8d-'	lie-	.	8f'	lie-	.	4.a-_	.	.
.	.	.	8c'	-be,	.	8e-'	-be,	.	.	.	.
.	.	.	8r	.	.	8r	.	.	.	.	.
=43	=43	=43	=43	=43	=43	=43	=43	=43	=43	=43	=43
8r	.	.	[4B-	lie-	<	(8dnL	lie-	<	8a-]	.	.
8.E-	lie-	sf	.	.	[[	8.d-XJ)	.	[[	8.dd-	lie-	sf
.	.	.	16B-]	.	>	.	.	>	.	.	.
16E-	-be	.	16B-	-be	]]	16d-	-be	]]	16g	-be	.
=44	=44	=44	=44	=44	=44	=44	=44	=44	=44	=44	=44
8E-	Lie-	.	8B-	Lie-	p	8d-	Lie-	p	8g	Lie-	p
8AA-	-der.	.	8A-	-der.	.	8c	-der.	.	8a-	-der.	.
8r;	.	.	8r;	.	.	8r;	.	.	8r;	.	.
==	==	==	==	==	==	==	==	==	==	==	==
*-	*-	*-	*-	*-	*-	*-	*-	*-	*-	*-	*-
!!!system-decoration: ([s1,s2,s3,s4])
!!!RDF**kern: i = editorial accidental
!!!AGN: Choral
!!!YOR: https://mdz-nbn-resolving.de/details:bsb11379755
!!!YOO: München, Bayerische Staatsbibliothek
!!!URL-scan: https://www.digitale-sammlungen.de/de/view/bsb11379755?page=9
!!!EED: Wolfgang Drescher
!!!END: 2024/10/22
!!!ENC: Wolfgang Drescher
!!!END: 2024/10/22
!!!title: @{OPS} @{ONM}. @{OTL}